X: 173
T: A Favorite Hornpipe
R: hornpipe, reel
M: C
L: 1/8
Z: 2012 John Chambers <jc:trillian.mit.edu>
B: J. Anderson "Budget of Strathspeys, Reels and Country Dances" (Early 1800s) p.17 #3
F: http://imslp.org/wiki/Anderson%27s_Budget_of_Strathspeys,_Reels_and_Country_Dances_(Various)
K: D
A2 |\
dd'c'b bagf | (ge).c.e (dc).B.A | (BGF)G E2(ef) | gece .d.c.B.A |
(dd').c'.b (ba).g.f | (ge)(ce) (dc).B.A | BGFG Ebag | fedc d2 |]
(g//a//b/) |\
(d'a).f.a (bc').e.g | (fa).d.a (ea).c.a | (fa).^g.a (da).e.a | d'b^gb abc'a |
d'afa gafg | fada ecBG | FdGd AdBd | gecA d2 |]

%%sep 2 1 500
%%sep 1 1 500

